icon_installer/data/icons/scalable/actions/show-screen-privacy6-symbolic.svg

<?xml version="1.0" encoding="UTF-8"?>
<svg height="16px" viewBox="0 0 16 16" width="16px" xmlns="http://www.w3.org/2000/svg">
    <path d="m 3 1 c -1.660156 0 -3 1.339844 -3 3 v 7 c 0 1.660156 1.339844 3 3 3 h 10 c 1.660156 0 3 -1.339844 3 -3 v -7 c 0 -1.660156 -1.339844 -3 -3 -3 z m 0 2 h 10 c 0.554688 0 1 0.445312 1 1 v 7 c 0 0.554688 -0.445312 1 -1 1 h -10 c -0.554688 0 -1 -0.445312 -1 -1 v -7 c 0 -0.554688 0.445312 -1 1 -1 z m 4.980469 1 c -1.105469 0 -2 0.894531 -2 2 c 0 0.71875 0.390625 1.382812 1.019531 1.738281 v 2.261719 c 0 0.554688 0.445312 1 1 1 s 1 -0.445312 1 -1 v -2.285156 c 0.605469 -0.359375 0.976562 -1.011719 0.980469 -1.714844 c 0 -1.105469 -0.898438 -2 -2 -2 z m -3.980469 11 s 1 1 4 1 s 4 -1 4 -1 z m 0 0" fill="#222222"/>
</svg>

<svg xmlns="http://www.w3.org/2000/svg" width="16" height="16"><path fill="#222" d="M3 1C1.34 1 0 2.34 0 4v7c0 1.66 1.34 3 3 3h10c1.66 0 3-1.34 3-3V4c0-1.66-1.34-3-3-3zm0 2h10c.555 0 1 .445 1 1v7c0 .555-.445 1-1 1H3c-.555 0-1-.445-1-1V4c0-.555.445-1 1-1zm4.98 1a2 2 0 0 0-2 2A2 2 0 0 0 7 7.738V10c0 .555.445 1 1 1s1-.445 1-1V7.715c.605-.36.977-1.012.98-1.715 0-1.105-.898-2-2-2zM4 15s1 1 4 1 4-1 4-1zm0 0"/></svg>
